!!!SOCIAL_FUNCTION:	southern dance songs
!!!PDT:	1913
!!!OTL: No_120_Invite_Our_Sweetheart.krn
!!!REG: Great_Lakes
!!!LANG: Non-Tone
!!!LING_GROUP: Algonquin
**kern	**kern
*staff2	*staff1
*clefF4	*clefF4
*k[b-e-]	*k[b-e-]
*M2/4	*M2/4
4r	8d\L
.	8d\J
=1	=1
12GG^/	8d\L
12r	.
.	8B-\J
12GG/	.
12GG^/	4B-\
12r	.
12GG/	.
=2	=2
2r	4B-\
.	8B-\L
.	8B-\J
=3	=3
2r	8B-\L
.	8G\J
.	4G\
=4||	=4||
*M3/4	*M3/4
2.r	4G\
.	4G\
.	8G\L
.	8G\J
=5||	=5||
*M2/4	*M2/4
2r	4G\
.	8.G\L
.	16B-\Jk
=6	=6
2r	4B-\
.	8c\L
.	8c\J
=7	=7
2r	2B-\
=8	=8
2r	4G\
.	4D\
=9	=9
2r	[4D\
.	8.D\L]
.	16G\Jk
=10	=10
2r	4.G\
.	8G\
=11	=11
2r	(4G\
.	4D\)
=12	=12
2r	4.G\
.	8G\
=13	=13
2r	[4G\
.	8.G\L]
.	16B-\Jk
=14	=14
2r	4B-\
.	8c\L
.	8c\J
=15	=15
2r	2B-\
=16	=16
2r	4G\
.	4D\
=17	=17
2r	[4D\
.	8.D\L]
.	16G\Jk
=18	=18
2r	4.G\
.	8G\
=19	=19
2r	(4G\
.	4D\)
=20	=20
2r	4.G\
.	8G\
=21	=21
2r	2G\
==	==
*-	*-
